!!!COM: Claude Goudimel
!!!OMD: Psalm 43: Revenge-moy, pren la querele
**kern	**kern	**kern	**kern
*part4	*part3	*part2	*part1
*staff4	*staff3	*staff2	*staff1
*clefF4	*clefGv2	*clefG2	*clefG2
*k[f#]	*k[f#]	*k[f#]	*k[f#]
!!LO:TX:omd:t=
*M4/4	*M4/4	*M4/4	*M4/4
=1	=1	=1	=1
2G	2B	2d	2g
2D	2d	2f#	2a
=2	=2	=2	=2
2D	2d	2f#	2a
4E	4B	4e	4g
4E	4B	4e	4g
=3	=3	=3	=3
4C	4e	4g	4cc
4C	4e	4g	4cc
2G	2d	2g	2b
=4	=4	=4	=4
2D	2d	2f#	2a
4r	4r	4r	4r
4E	4B	4e	4g
=5	=5	=5	=5
2D	2d	2f#	2a
2C	2e	2g	2cc
=6	=6	=6	=6
4G	2d	4g	4b
4D	.	4f#	2a
2E	4B	4e	.
.	4G	4c	[4g
=7	=7	=7	=7
2D	2A	2d	4g]
.	.	.	4f#
2GG	2G	2d	2g
=8	=8	=8	=8
2r	2r	2r	2r
2G	2d	2g	2b
=9	=9	=9	=9
4G	4d	4g	4b
4G	4d	4g	4b
4D	4d	4f#	4a
4D	4d	4f#	4a
=10	=10	=10	=10
4G	4d	4g	4b
4B	4d	4f#	2dd
2A	2e	2a	.
.	.	.	4cc#X
=11	=11	=11	=11
2D	2d	2f#	2dd
2r	2r	2r	2r
=12	=12	=12	=12
2D	2d	2f#	2a
4D	4d	4f#	4a
4D	4d	4f#	4a
=13	=13	=13	=13
2G	2d	2g	2b
4D	4d	4f#	2a
4AA	[4c	[4e	.
=14	=14	=14	=14
4C	4c]	4e]	4g
4D	4A	2d	4f#
2AA	2A	.	2e
.	.	4c#X	.
=15	=15	=15	=15
2D	2A	2d	2d
2r	2r	2r	2r
=16	=16	=16	=16
2G	2d	2g	2b
4G	4B	4g	4dd
4C	4e	4g	4cc
=17	=17	=17	=17
4G	4d	4g	4b
4D	4d	4f#	4a
2G	2d	2g	2b
=18	=18	=18	=18
2C	2e	2g	2cc
4G	4d	4g	4b
4G	4d	4g	4b
=19	=19	=19	=19
4D	4d	4f#	4a
4E	4B	4e	4g
4C	4c	4e	4g
4D	4A	4d	4f#
=20	=20	=20	=20
1GG	1G	1d	1g
==	==	==	==
*-	*-	*-	*-
!!!software: music21 v.9.7.1
!!!software: music21 v.8.3.0
!!!RDF**kern: > = above
!!!RDF**kern: < = below
